Numix-GalliumOS/32/mimetypes/text-x-scheme.svg

<?xml version="1.0" encoding="UTF-8" standalone="no"?>
<svg
   xmlns:dc="http://purl.org/dc/elements/1.1/"
   xmlns:cc="http://creativecommons.org/ns#"
   xmlns:rdf="http://www.w3.org/1999/02/22-rdf-syntax-ns#"
   xmlns:svg="http://www.w3.org/2000/svg"
   xmlns="http://www.w3.org/2000/svg"
   xmlns:sodipodi="http://sodipodi.sourceforge.net/DTD/sodipodi-0.dtd"
   xmlns:inkscape="http://www.inkscape.org/namespaces/inkscape"
   width="32"
   height="32"
   viewBox="0 0 32 32"
   id="svg2"
   version="1.1"
   inkscape:version="0.91 r13725"
   sodipodi:docname="text-x-scheme.svg">
  <metadata
     id="metadata16">
    <rdf:RDF>
      <cc:Work
         rdf:about="">
        <dc:format>image/svg+xml</dc:format>
        <dc:type
           rdf:resource="http://purl.org/dc/dcmitype/StillImage" />
      </cc:Work>
    </rdf:RDF>
  </metadata>
  <defs
     id="defs14" />
  <sodipodi:namedview
     pagecolor="#ffffff"
     bordercolor="#666666"
     borderopacity="1"
     objecttolerance="10"
     gridtolerance="10"
     guidetolerance="10"
     inkscape:pageopacity="0"
     inkscape:pageshadow="2"
     inkscape:window-width="1366"
     inkscape:window-height="717"
     id="namedview12"
     showgrid="false"
     inkscape:zoom="1"
     inkscape:cx="5.0471286"
     inkscape:cy="11.604472"
     inkscape:window-x="0"
     inkscape:window-y="26"
     inkscape:window-maximized="1"
     inkscape:current-layer="svg2">
    <inkscape:grid
       type="xygrid"
       id="grid4142" />
  </sodipodi:namedview>
  <path
     style="fill:#299f53;fill-opacity:1"
     d="M 5.335888,2.969e-4 C 4.648414,3.119e-4 4,0.6767878 4,1.3940311 L 4,30.606268 C 4,31.282757 4.687474,32 5.335888,32 l 21.327332,0 c 0.648414,0 1.335888,-0.717243 1.335888,-1.393732 L 28,8.9999996 l -9,-9 z"
     id="path4-1"
     inkscape:connector-curvature="0"
     sodipodi:nodetypes="ssssssccs" />
  <path
     style="fill:#000000;fill-opacity:0.19599998"
     d="M 21,8.9999996 28,16 28,8.9999996 z"
     id="path6-4"
     inkscape:connector-curvature="0"
     sodipodi:nodetypes="cccc" />
  <path
     style="fill:#ffffff;fill-opacity:0.39200003"
     d="m 19.000306,2.969e-4 8.991594,8.9997027 -7.613262,0 c -0.672951,0 -1.378332,-0.7134896 -1.378332,-1.3864402 z"
     id="path8-6"
     inkscape:connector-curvature="0"
     sodipodi:nodetypes="ccssc" />
  <path
     d="M 10,25 14.211764,15.476056 12.282352,11 15.764706,11 22,25 18.352942,25 15.858824,18.394366 13.458824,25 Z"
     style="font-style:normal;font-variant:normal;font-weight:normal;font-stretch:normal;font-size:15px;line-height:125%;font-family:Play;-inkscape-font-specification:Play;letter-spacing:0px;word-spacing:0px;fill:#ffffff;fill-opacity:1;stroke:none;stroke-width:1px;stroke-linecap:butt;stroke-linejoin:miter;stroke-opacity:1"
     id="path4221"
     inkscape:connector-curvature="0"
     sodipodi:nodetypes="ccccccccc" />
</svg>

<svg xmlns="http://www.w3.org/2000/svg" viewBox="0 0 32 32">
 <path d="m 5.336 0 c -0.687 0 -1.336 0.676 -1.336 1.394 l 0 29.21 c 0 0.676 0.687 1.394 1.336 1.394 l 21.327 0 c 0.648 0 1.336 -0.717 1.336 -1.394 l 0.001 -21.606 l -9 -9 z" style="fill:#299f53;fill-opacity:1"/>
 <path d="m 21 9 7 7 0 -7 z" style="fill:#000;fill-opacity:0.196"/>
 <path d="m 19 0 8.992 9 -7.613 0 c -0.673 0 -1.378 -0.713 -1.378 -1.386 z" style="fill:#fff;fill-opacity:0.392"/>
 <path d="m 10 25 4.212 -9.524 -1.929 -4.476 3.482 0 6.235 14 -3.647 0 -2.494 -6.606 -2.4 6.606" style="fill:#fff;fill-opacity:1;stroke:none"/>
</svg>
